packages/sources/assets/src/assets/amex.svg

<svg width="58" height="40" viewBox="0 0 58 40" fill="none" xmlns="http://www.w3.org/2000/svg">
<rect x="0.5" y="0.5" width="57" height="39" rx="3.5" fill="#006FCF" stroke="#F3F3F3"/>
<path fill-rule="evenodd" clip-rule="evenodd" d="M11.8632 28.8937V20.6592H21.1869L22.1872 21.8787L23.2206 20.6592H57.0632V28.3258C57.0632 28.3258 56.1782 28.8855 55.1546 28.8937H36.4152L35.2874 27.5957V28.8937H31.5916V26.6779C31.5916 26.6779 31.0867 26.9872 29.9953 26.9872H28.7373V28.8937H23.1415L22.1426 27.6481L21.1284 28.8937H11.8632ZM1 14.4529L3.09775 9.86914H6.7256L7.9161 12.4368V9.86914H12.4258L13.1346 11.7249L13.8216 9.86914H34.0657V10.8021C34.0657 10.8021 35.1299 9.86914 36.8789 9.86914L43.4474 9.89066L44.6173 12.4247V9.86914H48.3913L49.43 11.3247V9.86914H53.2386V18.1037H49.43L48.4346 16.6434V18.1037H42.8898L42.3321 16.8056H40.8415L40.293 18.1037H36.5327C35.0277 18.1037 34.0657 17.1897 34.0657 17.1897V18.1037H28.3961L27.2708 16.8056V18.1037H6.18816L5.63093 16.8056H4.14505L3.59176 18.1037H1V14.4529ZM1.01082 17.05L3.84023 10.8843H5.98528L8.81199 17.05H6.92932L6.40997 15.8154H3.37498L2.85291 17.05H1.01082ZM5.81217 14.4768L4.88706 12.3192L3.95925 14.4768H5.81217ZM9.00675 17.049V10.8832L11.6245 10.8924L13.147 14.8676L14.6331 10.8832H17.2299V17.049H15.5853V12.5058L13.8419 17.049H12.3996L10.6514 12.5058V17.049H9.00675ZM18.3552 17.049V10.8832H23.7219V12.2624H20.0171V13.3171H23.6353V14.6151H20.0171V15.7104H23.7219V17.049H18.3552ZM24.674 17.05V10.8843H28.3339C29.5465 10.8843 30.6331 11.5871 30.6331 12.8846C30.6331 13.9938 29.717 14.7082 28.8289 14.7784L30.9929 17.05H28.9831L27.0111 14.8596H26.3186V17.05H24.674ZM28.1986 12.2635H26.3186V13.5615H28.223C28.5526 13.5615 28.9776 13.3221 28.9776 12.9125C28.9776 12.5941 28.6496 12.2635 28.1986 12.2635ZM32.9837 17.049H31.3045V10.8832H32.9837V17.049ZM36.9655 17.049H36.603C34.8492 17.049 33.7844 15.754 33.7844 13.9915C33.7844 12.1854 34.8373 10.8832 37.052 10.8832H38.8698V12.3436H36.9856C36.0865 12.3436 35.4507 13.0012 35.4507 14.0067C35.4507 15.2008 36.1777 15.7023 37.2251 15.7023H37.6579L36.9655 17.049ZM37.7147 17.05L40.5441 10.8843H42.6892L45.5159 17.05H43.6332L43.1139 15.8154H40.0789L39.5568 17.05H37.7147ZM42.5161 14.4768L41.591 12.3192L40.6632 14.4768H42.5161ZM45.708 17.049V10.8832H47.7989L50.4687 14.7571V10.8832H52.1134V17.049H50.09L47.3526 13.0737V17.049H45.708ZM12.9885 27.8391V21.6733H18.3552V23.0525H14.6504V24.1072H18.2686V25.4052H14.6504V26.5005H18.3552V27.8391H12.9885ZM39.2853 27.8391V21.6733H44.6519V23.0525H40.9472V24.1072H44.5481V25.4052H40.9472V26.5005H44.6519V27.8391H39.2853ZM18.5635 27.8391L21.1765 24.7942L18.5012 21.6733H20.5733L22.1665 23.6026L23.7651 21.6733H25.756L23.1159 24.7562L25.7338 27.8391H23.6621L22.1151 25.9402L20.6057 27.8391H18.5635ZM25.9291 27.8401V21.6744H29.5619C31.0525 21.6744 31.9234 22.5748 31.9234 23.7482C31.9234 25.1647 30.8131 25.893 29.3482 25.893H27.617V27.8401H25.9291ZM29.4402 23.0687H27.617V24.4885H29.4348C29.9151 24.4885 30.2517 24.1901 30.2517 23.7786C30.2517 23.3406 29.9134 23.0687 29.4402 23.0687ZM32.6375 27.8391V21.6733H36.2973C37.51 21.6733 38.5966 22.3761 38.5966 23.6736C38.5966 24.7828 37.6805 25.4972 36.7923 25.5675L38.9563 27.8391H36.9465L34.9746 25.6486H34.2821V27.8391H32.6375ZM36.1621 23.0525H34.2821V24.3505H36.1864C36.5161 24.3505 36.9411 24.1112 36.9411 23.7015C36.9411 23.3831 36.6131 23.0525 36.1621 23.0525ZM45.4137 27.8391V26.5005H48.7051C49.1921 26.5005 49.403 26.2538 49.403 25.9833C49.403 25.7241 49.1928 25.462 48.7051 25.462H47.2177C45.9249 25.462 45.2048 24.7237 45.2048 23.6153C45.2048 22.6267 45.8642 21.6733 47.7854 21.6733H50.9881L50.2956 23.0606H47.5257C46.9962 23.0606 46.8332 23.321 46.8332 23.5697C46.8332 23.8253 47.0347 24.1072 47.4392 24.1072H48.9972C50.4384 24.1072 51.0638 24.8734 51.0638 25.8768C51.0638 26.9555 50.367 27.8391 48.9188 27.8391H45.4137ZM51.2088 27.8391V26.5005H54.5002C54.9873 26.5005 55.1981 26.2538 55.1981 25.9833C55.1981 25.7241 54.9879 25.462 54.5002 25.462H53.0129C51.72 25.462 51 24.7237 51 23.6153C51 22.6267 51.6594 21.6733 53.5806 21.6733H56.7833L56.0908 23.0606H53.3209C52.7914 23.0606 52.6284 23.321 52.6284 23.5697C52.6284 23.8253 52.8298 24.1072 53.2343 24.1072H54.7924C56.2336 24.1072 56.859 24.8734 56.859 25.8768C56.859 26.9555 56.1621 27.8391 54.7139 27.8391H51.2088Z" fill="white"/>
</svg>

<svg width="58" height="40" fill="none" xmlns="http://www.w3.org/2000/svg"><rect x=".5" y=".5" width="57" height="39" rx="3.5" fill="#006FCF" stroke="#F3F3F3"/><path fill-rule="evenodd" clip-rule="evenodd" d="M11.863 28.894v-8.235h9.324l1 1.22 1.034-1.22h33.842v7.667s-.885.56-1.908.568h-18.74l-1.128-1.298v1.298h-3.695v-2.216s-.505.31-1.597.31h-1.258v1.906h-5.595l-1-1.246-1.014 1.246h-9.265ZM1 14.453l2.098-4.584h3.628l1.19 2.568V9.869h4.51l.709 1.856.687-1.856h20.244v.933s1.064-.933 2.813-.933l6.568.022 1.17 2.534V9.869h3.774l1.039 1.456V9.869h3.809v8.235H49.43l-.995-1.46v1.46H42.89l-.558-1.298h-1.49l-.549 1.298h-3.76c-1.505 0-2.467-.914-2.467-.914v.914h-5.67l-1.125-1.298v1.298H6.188l-.557-1.298H4.145l-.553 1.298H1v-3.651Zm.01 2.597 2.83-6.166h2.145l2.827 6.166H6.929l-.519-1.235H3.375l-.522 1.235H1.01Zm4.802-2.573-.925-2.158-.928 2.158h1.853Zm3.195 2.572v-6.166l2.617.01 1.523 3.975 1.486-3.985h2.597v6.166h-1.645v-4.543l-1.743 4.543H12.4l-1.749-4.543v4.543H9.007Zm9.348 0v-6.166h5.367v1.38h-3.705v1.054h3.618v1.298h-3.618v1.095h3.705v1.339h-5.367Zm6.319.001v-6.166h3.66c1.213 0 2.3.703 2.3 2 0 1.11-.917 1.824-1.805 1.894l2.164 2.272h-2.01l-1.972-2.19h-.692v2.19h-1.645Zm3.525-4.787h-1.88v1.299h1.904c.33 0 .755-.24.755-.65 0-.318-.328-.649-.78-.649Zm4.785 4.786h-1.68v-6.166h1.68v6.166Zm3.981 0h-.362c-1.754 0-2.819-1.295-2.819-3.057 0-1.807 1.053-3.109 3.268-3.109h1.818v1.46h-1.884c-.9 0-1.535.658-1.535 1.664 0 1.194.727 1.695 1.774 1.695h.433l-.693 1.347Zm.75.001 2.83-6.166h2.144l2.827 6.166h-1.883l-.52-1.235H40.08l-.522 1.235h-1.842Zm4.801-2.573-.925-2.158-.928 2.158h1.853Zm3.192 2.572v-6.166h2.09l2.67 3.874v-3.874h1.645v6.166H50.09l-2.737-3.975v3.975h-1.645Zm-32.72 10.79v-6.166h5.367v1.38H14.65v1.054h3.619v1.298H14.65V26.5h3.705v1.34h-5.367Zm26.297 0v-6.166h5.367v1.38h-3.705v1.054h3.601v1.298h-3.6V26.5h3.704v1.34h-5.367Zm-20.721 0 2.613-3.045-2.676-3.12h2.072l1.593 1.929 1.6-1.93h1.99l-2.64 3.083 2.618 3.083h-2.072l-1.547-1.899-1.51 1.9h-2.041Zm7.365.001v-6.166h3.633c1.49 0 2.361.9 2.361 2.074 0 1.417-1.11 2.145-2.575 2.145h-1.731v1.947h-1.688Zm3.511-4.771h-1.823v1.42h1.818c.48 0 .817-.299.817-.71 0-.438-.339-.71-.812-.71Zm3.198 4.77v-6.166h3.66c1.212 0 2.299.703 2.299 2 0 1.11-.916 1.824-1.805 1.895l2.164 2.271h-2.01l-1.971-2.19h-.693v2.19h-1.644Zm3.524-4.787h-1.88v1.299h1.904c.33 0 .755-.24.755-.65 0-.318-.328-.649-.779-.649Zm9.252 4.787v-1.338h3.291c.487 0 .698-.247.698-.518 0-.259-.21-.521-.698-.521h-1.487c-1.293 0-2.013-.738-2.013-1.847 0-.988.66-1.942 2.58-1.942h3.203l-.692 1.388h-2.77c-.53 0-.693.26-.693.509 0 .255.202.537.606.537h1.558c1.441 0 2.067.766 2.067 1.77 0 1.079-.697 1.962-2.145 1.962h-3.505Zm5.795 0v-1.338H54.5c.487 0 .698-.247.698-.518 0-.259-.21-.521-.698-.521h-1.487c-1.293 0-2.013-.738-2.013-1.847 0-.988.66-1.942 2.58-1.942h3.203l-.692 1.388h-2.77c-.53 0-.693.26-.693.509 0 .255.202.537.606.537h1.558c1.442 0 2.067.766 2.067 1.77 0 1.079-.697 1.962-2.145 1.962h-3.505Z" fill="#fff"/></svg>
